proprietary/assets/icons/vervoersmiddelen/tram.svg

<svg height="64" viewBox="0 0 64 64" width="64" xmlns="http://www.w3.org/2000/svg"><path d="m0 0h64v64h-64z" fill="none"/><path d="m43.5488 54.4395c-.0368.0075-1.9044.3805-4.7245.6821l1.1757 5.8784h6l-2.0027-6.6758c-.1496.0384-.2951.0807-.4485.1153z"/><path d="m19.9996 54.3347-1.9996 6.6653h6l1.1755-5.8777c-2.7916-.2981-4.6365-.6648-4.6672-.6711-.1737-.0339-.3397-.0771-.5087-.1165z"/><path d="m44 3h-24c-2.7617 0-5 2.2388-5 5v38c0 3.3135 2.583 5.3335 6 6 0 0 5 1 11 1s11-1 11-1c3.333-.75 6-2.6865 6-6v-38c0-2.7612-2.2383-5-5-5zm-20 3h16v3h-16zm2.2142 42.072c-.8869.0626-2.1174-.0932-3.2401-.2681-1.7247-.2686-3.15-1.5433-3.15-3.0388v-2.2974c0-.851.7178-1.0495 1.4704-.55 1.5186 1.0074 4.444 3.2801 5.5638 4.4732.6665.7112.3589 1.6109-.6441 1.6811zm-1.0843-10.4215c-2.1123-.3628-3.9033-1.7322-3.9961-3.9291l-1.0889-20.6499c-.0244-.5839.4297-1.0715.999-1.0715h21.9112c.5703 0 1.0244.4876 1 1.0715l-1.0889 20.6499c-.0928 2.1969-1.876 3.6173-3.9961 3.9291-1.3076.1926-3.9707.4495-6.8701.4495s-5.75-.2569-6.8701-.4495zm19.046 7.1146c0 1.4955-1.4253 2.7702-3.15 3.0388-1.1227.1749-2.3532.3307-3.2401.2681-1.003-.0702-1.3106-.9699-.6441-1.6811 1.1198-1.1931 4.0452-3.4658 5.5638-4.4732.7526-.4995 1.4704-.301 1.4704.55z"/></svg>

<?xml version="1.0" encoding="utf-8"?>
<!-- Generator: Adobe Illustrator 17.1.0, SVG Export Plug-In . SVG Version: 6.00 Build 0)  -->
<svg version="1.2" baseProfile="tiny" xmlns="http://www.w3.org/2000/svg" xmlns:xlink="http://www.w3.org/1999/xlink" x="0px"
	 y="0px" width="64px" height="64px" viewBox="0 0 64 64" xml:space="preserve">
<g id="_x36_4px_Boxes">
	<rect fill="none" width="64" height="64"/>
</g>
<g id="Production">
	<g>
		<path d="M43.5488,54.4395c-0.0368,0.0075-1.9044,0.3805-4.7245,0.6821L40,61h6l-2.0027-6.6758
			C43.8477,54.3626,43.7022,54.4049,43.5488,54.4395z"/>
		<path d="M19.9996,54.3347L18,61h6l1.1755-5.8777c-2.7916-0.2981-4.6365-0.6648-4.6672-0.6711
			C20.3346,54.4173,20.1686,54.3741,19.9996,54.3347z"/>
		<path d="M44,3H20c-2.7617,0-5,2.2388-5,5v38c0,3.3135,2.583,5.3335,6,6c0,0,5,1,11,1s11-1,11-1c3.333-0.75,6-2.6865,6-6V8
			C49,5.2388,46.7617,3,44,3z M24,6h16v3H24V6z M26.2142,48.072c-0.8869,0.0626-2.1174-0.0932-3.2401-0.2681
			c-1.7247-0.2686-3.15-1.5433-3.15-3.0388v-2.2974c0-0.851,0.7178-1.0495,1.4704-0.55c1.5186,1.0074,4.444,3.2801,5.5638,4.4732
			C27.5248,47.1021,27.2172,48.0018,26.2142,48.072z M25.1299,37.6505c-2.1123-0.3628-3.9033-1.7322-3.9961-3.9291l-1.0889-20.6499
			C20.0205,12.4876,20.4746,12,21.0439,12h21.9112c0.5703,0,1.0244,0.4876,1,1.0715l-1.0889,20.6499
			c-0.0928,2.1969-1.876,3.6173-3.9961,3.9291C37.5625,37.8431,34.8994,38.1,32,38.1S26.25,37.8431,25.1299,37.6505z
			 M44.1759,44.7651c0,1.4955-1.4253,2.7702-3.15,3.0388c-1.1227,0.1749-2.3532,0.3307-3.2401,0.2681
			c-1.003-0.0702-1.3106-0.9699-0.6441-1.6811c1.1198-1.1931,4.0452-3.4658,5.5638-4.4732c0.7526-0.4995,1.4704-0.301,1.4704,0.55
			V44.7651z"/>
	</g>
</g>
</svg>
